public/images/tree.svg

<svg xmlns:xlink="http://www.w3.org/1999/xlink" xmlns="http://www.w3.org/2000/svg" width="17" height="17" viewBox="0 0 17 17" fill="none">
<path d="M16.751 16.502H14.7422V13.0947C16.008 12.9545 17 11.7575 17 10.3062C17 8.87888 16.0402 7.69818 14.8043 7.52625C15.051 7.21677 15.2196 6.84476 15.2843 6.44058C15.3059 6.30478 15.2134 6.17708 15.0776 6.15536C14.9414 6.13391 14.8141 6.22618 14.7924 6.36198C14.6867 7.02399 14.2241 7.57436 13.6016 7.79991C13.4529 7.85377 13.3421 7.98329 13.3123 8.13785C13.266 8.37765 13.0974 8.96448 12.5329 9.23462C12.0459 9.4677 11.5681 9.32483 11.3856 9.25268C11.0783 9.13069 10.8725 8.93147 10.7451 8.76692V7.69077L11.833 6.60294C11.9302 6.50565 11.9302 6.34801 11.833 6.25075C11.7357 6.15357 11.578 6.1535 11.4808 6.25075L10.7451 6.98644V5.33767C10.7451 5.20011 10.6336 5.08864 10.4961 5.08864C10.3585 5.08864 10.247 5.20011 10.247 5.33767V6.50851L9.51137 5.77283C9.41408 5.67561 9.25643 5.67561 9.15918 5.77283C9.06193 5.87011 9.06193 6.02776 9.15918 6.12501L10.2471 7.21291V8.76709C10.1191 8.93184 9.91302 9.13106 9.60683 9.25261C9.42398 9.32487 8.94622 9.46777 8.45926 9.23472C8.22342 9.12169 8.0332 8.94183 7.89179 8.70115C7.93512 7.60046 7.61686 5.99187 7.14372 4.45038C7.20823 4.41548 7.27477 4.38401 7.34307 4.35698C7.56487 4.26979 7.69974 4.04507 7.67122 3.81119C7.66594 3.7667 7.66335 3.72366 7.66335 3.67964C7.66335 3.17429 8.00554 2.73673 8.49548 2.61548C8.73123 2.55714 8.89585 2.34547 8.89585 2.09817C8.89585 1.2159 9.61377 0.498113 10.4962 0.498113C11.3785 0.498113 12.0963 1.2159 12.0963 2.10083C12.0963 2.3455 12.2609 2.55714 12.4967 2.61551C13.0339 2.74849 13.3876 3.26264 13.321 3.81059C13.2925 4.0449 13.4273 4.26952 13.649 4.35695C14.1151 4.54039 14.4909 4.91161 14.6802 5.37532C14.7328 5.50418 14.8801 5.56272 15.0048 5.51182C15.1322 5.45986 15.1933 5.31453 15.1413 5.18719C14.9009 4.5981 14.4235 4.12658 13.8315 3.89356C13.8216 3.88965 13.8143 3.87942 13.8155 3.87029C13.9153 3.06581 13.3897 2.32389 12.6163 2.13204C12.6038 2.12892 12.5943 2.1155 12.5943 2.09817C12.5943 0.941209 11.6531 0 10.4962 0C9.33908 0 8.39773 0.941209 8.39773 2.10076C8.39773 2.11544 8.3883 2.12888 8.37582 2.13197C7.66305 2.30831 7.16523 2.94472 7.16523 3.67957C7.16523 3.74259 7.16905 3.80667 7.17672 3.87075C7.18187 3.91385 7.02332 3.94968 6.98866 3.97046C6.92667 3.78702 6.86262 3.60662 6.79655 3.43118C5.7287 0.595299 4.65807 0 3.94795 0C2.70871 0 1.76099 1.74612 1.18416 3.21094C1.13375 3.33891 1.19664 3.48351 1.32461 3.53391C1.4525 3.58434 1.59717 3.52142 1.64757 3.39346C2.37216 1.55338 3.21061 0.498047 3.94795 0.498047C4.71816 0.498047 5.58656 1.6311 6.33044 3.60669C7.03119 5.46776 7.39786 7.47784 7.39786 8.50159C7.39786 10.5499 5.98344 12.233 4.19697 12.3772V10.3563C4.19697 10.3562 4.19697 10.3561 4.19697 10.356V9.40382L5.23627 8.36453C5.33352 8.26725 5.33352 8.1096 5.23627 8.01235C5.13898 7.91513 4.98133 7.91513 4.88408 8.01235L4.19701 8.69942V7.65813C4.19701 7.52057 4.08555 7.40911 3.94798 7.40911C3.81042 7.40911 3.69896 7.52057 3.69896 7.65813V9.30049V9.30083V9.75494L3.01186 9.06784C2.91457 8.97062 2.75692 8.97062 2.65967 9.06784C2.56242 9.16512 2.56242 9.32277 2.65967 9.42003L3.69896 10.4593V12.3772C1.91247 12.233 0.498047 10.5499 0.498047 8.50159C0.498047 7.5393 0.807533 5.91759 1.26819 4.46619C1.3098 4.33513 1.23725 4.19512 1.10616 4.15351C0.975275 4.11201 0.835125 4.18449 0.793488 4.31554C0.311479 5.83425 0 7.47738 0 8.50159C0 10.826 1.63761 12.7333 3.69893 12.8765V16.502H0.249023C0.111463 16.502 0 16.6134 0 16.751C0 16.8885 0.111463 17 0.249023 17H16.751C16.8885 17 17 16.8885 17 16.751C17 16.6134 16.8885 16.502 16.751 16.502ZM10.247 16.502H4.19697V12.8765C5.98739 12.7521 7.45792 11.2967 7.81356 9.3932C7.94142 9.5104 8.08506 9.60762 8.24407 9.68382C8.9079 10.0016 9.54623 9.81195 9.79017 9.71557C9.96725 9.64528 10.1182 9.55559 10.247 9.45907V16.502ZM14.2441 16.502H10.7451V9.45924C10.8738 9.55566 11.0248 9.64531 11.2022 9.7157C11.3446 9.77201 11.6221 9.86026 11.9607 9.86026C11.9798 9.86026 11.9863 10.1558 11.9863 10.3063C11.9863 11.7576 12.9783 12.9545 14.2441 13.0947V16.502ZM14.4932 10.1344C14.3556 10.1344 14.2441 10.2458 14.2441 10.3834V11.7522V11.7526V12.5922C13.2537 12.451 12.4844 11.48 12.4844 10.3062C12.4844 10.1237 12.5033 9.94324 12.54 9.76786C13.3025 9.5125 13.7403 8.61873 13.7959 8.25908C13.9648 8.19576 14.1236 8.11391 14.2703 8.0164C15.4795 7.86054 16.502 8.95867 16.502 10.3062C16.502 11.48 15.7327 12.451 14.7422 12.5922V11.8556L15.5296 11.0682C15.6268 10.9709 15.6268 10.8133 15.5296 10.716C15.4323 10.6188 15.2746 10.6188 15.1774 10.716L14.7422 11.1512V10.3834C14.7422 10.2458 14.6307 10.1344 14.4932 10.1344Z" fill="black"/>
</svg>

<svg xmlns="http://www.w3.org/2000/svg" width="17" height="17" fill="none"><path fill="#000" d="M16.751 16.502h-2.009v-3.407c1.266-.14 2.258-1.338 2.258-2.789 0-1.427-.96-2.608-2.196-2.78.247-.31.416-.681.48-1.085a.25.25 0 0 0-.492-.079 1.85 1.85 0 0 1-1.19 1.438.45.45 0 0 0-.29.338c-.046.24-.215.826-.78 1.097-.486.233-.964.09-1.146.018a1.5 1.5 0 0 1-.64-.486V7.69l1.087-1.088a.25.25 0 0 0-.352-.352l-.736.735V5.338a.249.249 0 1 0-.498 0v1.17l-.736-.735a.25.25 0 0 0-.352.352l1.088 1.088v1.554a1.5 1.5 0 0 1-.64.486c-.183.072-.66.215-1.148-.018a1.3 1.3 0 0 1-.567-.534c.043-1.1-.275-2.71-.748-4.25q.095-.054.2-.094a.52.52 0 0 0 .327-.546 1.094 1.094 0 0 1 .824-1.196c.236-.058.4-.27.4-.517 0-.882.719-1.6 1.601-1.6.883 0 1.6.718 1.6 1.603 0 .244.165.456.4.515.538.132.892.647.825 1.195a.52.52 0 0 0 .328.546c.466.183.842.555 1.031 1.018a.249.249 0 1 0 .461-.188 2.35 2.35 0 0 0-1.31-1.293c-.01-.004-.017-.015-.015-.024a1.594 1.594 0 0 0-1.2-1.738c-.012-.003-.022-.017-.022-.034A2.1 2.1 0 0 0 10.496 0a2.1 2.1 0 0 0-2.098 2.1c0 .015-.01.029-.022.032a1.59 1.59 0 0 0-1.2 1.739c.006.043-.153.079-.187.1a17 17 0 0 0-.192-.54C5.729.595 4.658 0 3.948 0c-1.24 0-2.187 1.746-2.764 3.21a.249.249 0 1 0 .464.183C2.372 1.553 3.21.498 3.948.498c.77 0 1.639 1.133 2.382 3.109.701 1.86 1.068 3.87 1.068 4.895 0 2.048-1.415 3.731-3.201 3.875V9.404l1.04-1.04a.249.249 0 1 0-.353-.352l-.687.687V7.66a.249.249 0 1 0-.498 0v2.096l-.687-.687a.25.25 0 0 0-.352.352l1.039 1.04v1.917C1.912 12.233.498 10.55.498 8.502c0-.963.31-2.584.77-4.036a.249.249 0 0 0-.475-.15C.311 5.834 0 7.477 0 8.502c0 2.324 1.638 4.231 3.699 4.374v3.626H.249a.249.249 0 1 0 0 .498h16.502a.249.249 0 0 0 0-.498m-6.504 0h-6.05v-3.625c1.79-.125 3.26-1.58 3.617-3.484q.191.177.43.29c.664.319 1.302.129 1.546.033.177-.07.328-.16.457-.257zm3.997 0h-3.499V9.459c.129.097.28.186.457.257.143.056.42.144.759.144.019 0 .025.296.025.446 0 1.452.992 2.649 2.258 2.789zm.25-6.368a.25.25 0 0 0-.25.25v2.208c-.99-.141-1.76-1.112-1.76-2.286q.001-.274.056-.538c.763-.256 1.2-1.15 1.256-1.509q.254-.095.474-.243c1.21-.155 2.232.943 2.232 2.29 0 1.174-.77 2.145-1.76 2.286v-.736l.788-.788a.25.25 0 0 0-.353-.352l-.435.435v-.768a.25.25 0 0 0-.249-.249"/></svg>
